X:1
T:Reel St-Sim\'eon $1(R-142)
R:reel
Z:Transcribed to abc by Mary Lou Knack
M:C|
K:D
f| "D"a2fd A2df| aba^g "D#o"a3f| "Em"(3gag ec Acef| g2f2 "A7"g3f|
"D"a2fd "Em7"A2df| "Do"aba^g "D"a3f| "Em"(3gag ec Acef| "A7"gf{g}fe "D"d3|]
|:B| "D"A2f2 {g}fedc| "G"Bg (3ggg "Em"gfed| "A"ca (3aaa "A7"gece| "D"dcde "Do"fafd|
"D"A2fg    fedc| "G"Bg (3ggg "Em"gfed| "A"ca (3aaa "A7"gece| "D"df"A"ec "D"d3 :|

%%textfont       Times-Bold 10.0
%%text Suggested base line:
%%text |: D D  | D D# | E A  | E  A   | D E  | F F# | E A  | A  D :|
%%text |: D F# | G E  | A C# | DE FF# | D F# | G E  | A C# | DA D :|

